X:504
T: DIE BINSGAUER WOLLTEN WALLFAHRTEN GAHN
N: E1761
O: Europa, Mitteleuropa, Deutschland
R: Spott - Lied auf Wallfahrt
M: 4/4
L: 1/8
K: G
D2 | G2GAGFED | G2GBA4
G3FE2A2 | G2F2G2
D2 | G2GAGFED | G2GBA4
G3FE2A2 | G2F2G2z
A | BBBBc2cB | AAAAd4
B2B2c4 | AAAAd2z
D | GFEDEFGA | G2F2G2z
D | GFEDEFGA | G2F2G2

